X:4
T:The Roaring Barmaid
R:jig
C:Tony O'Sullivan
Z:Translated to abc by Debbie Knight
Z:
M:6/8
K:G
"G"G3 EGD |"C/G"G3 EGD |"G"DGG BGG |dGG BdB |
"G"G3 EGD |"G/B"G3 EGD |"C"GAB deg |"D" deg edB :|
|:"G"deg b3 |"G/B"bab deg  |"C"b3 bag |"D"edB deg |
"G"b3 bab |"G/B"agg bgg |"C"agg efg|"D"deg edB :| "G - go out on"G6 |]
%%text Roaring Jelly J-76

